src/assets/flags/ge.svg

<?xml version="1.0" encoding="UTF-8"?>
<svg xmlns="http://www.w3.org/2000/svg" xmlns:xlink="http://www.w3.org/1999/xlink" width="25px" height="19px" viewBox="0 0 25 19" version="1.1">
<g id="surface1">
<rect x="0" y="0" width="25" height="19" style="fill:rgb(100%,100%,100%);fill-opacity:1;stroke:none;"/>
<path style=" stroke:none;fill-rule:nonzero;fill:rgb(100%,0%,0%);fill-opacity:1;" d="M 10.625 0 L 14.375 0 L 14.375 19 L 10.625 19 Z M 10.625 0 "/>
<path style=" stroke:none;fill-rule:nonzero;fill:rgb(100%,0%,0%);fill-opacity:1;" d="M 0 7.601562 L 25 7.601562 L 25 11.398438 L 0 11.398438 Z M 0 7.601562 "/>
<path style=" stroke:none;fill-rule:evenodd;fill:rgb(100%,0%,0%);fill-opacity:1;" d="M 5.734375 14.769531 C 5.773438 14.105469 5.890625 13.539062 5.890625 13.539062 C 5.890625 13.539062 5.507812 13.578125 5.3125 13.578125 C 5.117188 13.578125 4.734375 13.539062 4.734375 13.539062 C 4.734375 13.539062 4.851562 14.105469 4.890625 14.773438 C 4.230469 14.734375 3.671875 14.613281 3.671875 14.613281 C 3.671875 14.613281 3.710938 14.90625 3.710938 15.199219 C 3.710938 15.492188 3.671875 15.785156 3.671875 15.785156 C 3.671875 15.785156 4.230469 15.667969 4.890625 15.628906 C 4.851562 16.296875 4.734375 16.863281 4.734375 16.863281 C 4.734375 16.863281 5.023438 16.824219 5.3125 16.824219 C 5.601562 16.824219 5.890625 16.863281 5.890625 16.863281 C 5.890625 16.863281 5.773438 16.296875 5.734375 15.628906 C 6.394531 15.667969 6.953125 15.785156 6.953125 15.785156 C 6.953125 15.785156 6.914062 15.398438 6.914062 15.199219 C 6.914062 15.003906 6.953125 14.613281 6.953125 14.613281 C 6.953125 14.613281 6.394531 14.734375 5.738281 14.773438 Z M 20.109375 3.367188 C 20.148438 2.703125 20.265625 2.136719 20.265625 2.136719 C 20.265625 2.136719 19.882812 2.175781 19.6875 2.175781 C 19.492188 2.175781 19.109375 2.136719 19.109375 2.136719 C 19.109375 2.136719 19.226562 2.703125 19.265625 3.367188 C 18.605469 3.328125 18.046875 3.214844 18.046875 3.214844 C 18.046875 3.214844 18.085938 3.507812 18.085938 3.800781 C 18.085938 4.09375 18.046875 4.386719 18.046875 4.386719 C 18.046875 4.386719 18.605469 4.265625 19.265625 4.226562 C 19.226562 4.894531 19.109375 5.460938 19.109375 5.460938 C 19.109375 5.460938 19.398438 5.421875 19.6875 5.421875 C 19.976562 5.421875 20.265625 5.460938 20.265625 5.460938 C 20.265625 5.460938 20.148438 4.894531 20.109375 4.230469 C 20.769531 4.269531 21.328125 4.390625 21.328125 4.390625 C 21.328125 4.390625 21.289062 3.992188 21.289062 3.800781 C 21.289062 3.605469 21.328125 3.214844 21.328125 3.214844 C 21.328125 3.214844 20.769531 3.332031 20.109375 3.371094 Z M 5.734375 3.367188 C 5.773438 2.703125 5.890625 2.136719 5.890625 2.136719 C 5.890625 2.136719 5.507812 2.175781 5.3125 2.175781 C 5.117188 2.175781 4.734375 2.136719 4.734375 2.136719 C 4.734375 2.136719 4.851562 2.703125 4.890625 3.371094 C 4.230469 3.332031 3.671875 3.214844 3.671875 3.214844 C 3.671875 3.214844 3.710938 3.507812 3.710938 3.800781 C 3.710938 4.09375 3.671875 4.386719 3.671875 4.386719 C 3.671875 4.386719 4.230469 4.265625 4.890625 4.226562 C 4.851562 4.894531 4.734375 5.460938 4.734375 5.460938 C 4.734375 5.460938 5.023438 5.421875 5.3125 5.421875 C 5.601562 5.421875 5.890625 5.460938 5.890625 5.460938 C 5.890625 5.460938 5.773438 4.894531 5.734375 4.226562 C 6.394531 4.265625 6.953125 4.386719 6.953125 4.386719 C 6.953125 4.386719 6.914062 3.996094 6.914062 3.800781 C 6.914062 3.601562 6.953125 3.214844 6.953125 3.214844 C 6.953125 3.214844 6.394531 3.332031 5.738281 3.371094 Z M 20.109375 14.769531 C 20.148438 14.105469 20.265625 13.539062 20.265625 13.539062 C 20.265625 13.539062 19.882812 13.578125 19.6875 13.578125 C 19.492188 13.578125 19.109375 13.539062 19.109375 13.539062 C 19.109375 13.539062 19.226562 14.105469 19.265625 14.773438 C 18.605469 14.734375 18.046875 14.613281 18.046875 14.613281 C 18.046875 14.613281 18.085938 14.90625 18.085938 15.199219 C 18.085938 15.492188 18.046875 15.785156 18.046875 15.785156 C 18.046875 15.785156 18.605469 15.667969 19.265625 15.628906 C 19.226562 16.296875 19.109375 16.863281 19.109375 16.863281 C 19.109375 16.863281 19.398438 16.824219 19.6875 16.824219 C 19.976562 16.824219 20.265625 16.863281 20.265625 16.863281 C 20.265625 16.863281 20.148438 16.296875 20.109375 15.628906 C 20.769531 15.667969 21.328125 15.785156 21.328125 15.785156 C 21.328125 15.785156 21.289062 15.398438 21.289062 15.199219 C 21.289062 15.003906 21.328125 14.613281 21.328125 14.613281 C 21.328125 14.613281 20.769531 14.734375 20.109375 14.773438 Z M 20.109375 14.769531 "/>
</g>
</svg>

<svg xmlns="http://www.w3.org/2000/svg" width="25" height="19" viewBox="0 0 25 19"><path d="M0 0h25v19H0z" style="fill:#fff;fill-opacity:1;stroke:none"/><path d="M10.625 0h3.75v19h-3.75Zm0 0" style="stroke:none;fill-rule:nonzero;fill:red;fill-opacity:1"/><path d="M0 7.602h25v3.796H0Zm0 0" style="stroke:none;fill-rule:nonzero;fill:red;fill-opacity:1"/><path d="M5.734 14.77c.04-.665.157-1.23.157-1.23s-.383.038-.578.038c-.196 0-.579-.039-.579-.039s.118.566.157 1.234c-.66-.039-1.22-.16-1.22-.16s.04.293.04.586-.04.586-.04.586.56-.117 1.22-.156c-.04.668-.157 1.234-.157 1.234s.29-.039.579-.039.578.04.578.04-.118-.567-.157-1.235c.66.039 1.22.156 1.22.156s-.04-.387-.04-.586c0-.195.04-.586.04-.586s-.56.121-1.216.16ZM20.11 3.367c.04-.664.157-1.23.157-1.23s-.383.039-.578.039c-.196 0-.579-.04-.579-.04s.118.567.157 1.231c-.66-.039-1.22-.152-1.22-.152s.04.293.04.586-.04.586-.04.586.56-.121 1.22-.16c-.04.668-.157 1.234-.157 1.234s.29-.04.578-.04c.29 0 .579.04.579.04s-.118-.566-.157-1.23c.66.039 1.22.16 1.22.16s-.04-.399-.04-.59c0-.196.04-.586.04-.586s-.56.117-1.22.156Zm-14.375 0c.04-.664.157-1.23.157-1.23s-.383.039-.578.039c-.196 0-.579-.04-.579-.04s.118.567.157 1.235c-.66-.039-1.22-.156-1.22-.156s.04.293.04.586-.04.586-.04.586.56-.121 1.22-.16a10 10 0 0 1-.157 1.234s.29-.04.579-.04.578.04.578.04-.118-.566-.157-1.234c.66.039 1.22.16 1.22.16s-.04-.39-.04-.586c0-.2.04-.586.04-.586s-.56.117-1.216.156ZM20.11 14.77c.04-.665.157-1.23.157-1.23s-.383.038-.578.038c-.196 0-.579-.039-.579-.039s.118.566.157 1.234c-.66-.039-1.22-.16-1.22-.16s.04.293.04.586-.04.586-.04.586.56-.117 1.22-.156c-.04.668-.157 1.234-.157 1.234s.29-.039.578-.039c.29 0 .579.04.579.04s-.118-.567-.157-1.235a9 9 0 0 1 1.22.156s-.04-.387-.04-.586c0-.195.04-.586.04-.586s-.56.121-1.22.16Zm0 0" style="stroke:none;fill-rule:evenodd;fill:red;fill-opacity:1"/></svg>
